X:1
L:1/8
M:6/8
K:Emin
 E | E2 B c2 A B3/2 ^c/ d e2 f d2 B B3/2 ^c/ d ^c2 A A3/2 G/ F | 
 E2 B B2 A B3/2 ^c/ d e2 f d3/2 e/ f g2 f e3 e2 E | 
 E2 B c2 A B3/2 ^c/ d e2 f d2 B B3/2 ^c/ d ^c2 A A3/2 G/ F | 
 E2 B B2 A B3/2 ^c/ d e2 f d3/2 e/ f g2 f e3 e2 f | 
 f d e f d e f3/2 e/ d ^c A2 B G A B G A B3/2 A/ G F D2 | 
 f d e f d e f3/2 g/ a b3/2 a/ g f3/2 e/ d c3/2 B/ A E3 B2 f | 
 f d e f d e f3/2 e/ d ^c A2 B G A B G A B3/2 A/ G F D2 | 
 f d e f d e f3/2 g/ a b3/2 a/ g f3/2 e/ d c3/2 B/ A E3 B2 ||
